X: 1
T: The Drops Of Brandy
R: slip jig
M: 9/8
L: 1/8
K: Dmaj
ABA FDF FDF|ABA FDF GFE|ABA FDF FDF|GFG E2 F GFE|
ABA FDF FDF|ABA FDF GFE|ABA FDF FDF|GFG E2 F GFE:||
DFA dAF dAF|DFA dAF GFE|DFA dAF dAF|GFG E2 F GFE|
DFA dAF dAF|DFA dAF GFE|DFA dfe dAF|GFG E2 F GFE:||


Tune 388	Setting 13220

